X:846
T:Sir Reginald MacDonald
R:Reel
B:The Athole Collection
M:C|
L:1/8
K:A
f|e>dcB A2 (A>c|B2 (Bc defa|edcB A2 (A>c|BEGB A2 A:|
f|eAcA eAcA|B2 (Bc defa|eAcA eAcA|BEGB A2 (A>f|
eAcA eAcA|B2 (Bc defg|aefd cAAc|BEGB A2 A||

